!!!OTL: Jaeger - Romanze.
!!!ARE: Europa, Mitteleuropa, Deutschland
!!!SCT: A0437
!!!TXL: @@GMH
!!!YEM: Copyright 1995, estate of Helmut Schaffrath.
**kern	**text
*M6/2	*
*met(C|3)	*
*k[]	*
*C:ion	*
=1	=1
!LO:TX:a:t=jon.	!
0ryy	.
2ryy	.
{2cc	Es
=2	=2
1cc	wollt
2ee	gut
1dd	Jä-
2ee	-ger
=3	=3
*lig	*
2.cc	ja-
4b	.
2a	.
*Xlig	*
1g}	-gen
{2gg	drei
=4	=4
1gg	ſtun-
2ff	-den
*lig	*
2.ee	vor
4dd	.
*Xlig	*
2cc	dem
=5	=5
*lig	*
1b	ta-
2cc	.
*Xlig	*
1dd	-ge,
2ff	des
=6	=6
1ee	ja-
1cc	-gen
2dd	ward
2dd	er
=7	=7
0.cc\ll}	fro.
==	==
!!!GTL: Jägerlieder und Jägerromanzen
!!!AGN: Romanze, Ballade, Lied, Jaegerlied
!! M. Franck, Fascic. quodl. 1611 No. 6.
!!!ONB: ESAC (Essen Associative Code) Database: ALTDEU
!!!AMT: compound duple
!!!AIN: vox
!!!EED: Helmut Schaffrath
!!!EEV: 1.0
!!!RDF**kern: l = terminal long
!!!AMD: Ionian
!!!URL-scan: https://rosdok.uni-rostock.de/mcrviewer/recordIdentifier/rosdok_ppn738218359/iview2/phys_0615.iview2?x=-27.342981878423416&y=2562.3206747733057&scale=0.6340035897852&rotation=0&layout=singlePageLayout&logicalDiv=log_0016
!!!ENC: Anna Maria Matuszewska
!!!EEV: 2024/18/03
*-	*-
